X: 36728
T: Sheep In The Boat, The
R: jig
M: 6/8
K: Edorian
|:B,EF G3|FED def|edB BAF|AFE FED|
B,EF G3|FED def|edB BAF|AFE E3:|
|:B2e ede|fef def|edB BAF|AFE FED|
[1 B2e ede|fef def|edB BAF|AFE E3:|
[2 BEF G3|FED def|edB BAF|AFE E3||

